img/icons/corp/4.svg

<svg width="71" height="56" viewBox="0 0 71 56" fill="none" xmlns="http://www.w3.org/2000/svg">
<path d="M64.233 13.6598C65.2235 13.4105 65.8862 12.9163 66.2211 12.1714L70.1123 3.23021C70.3902 2.59323 70.4515 1.34981 69.3955 0.835679C68.3423 0.31871 67.1552 0.922314 66.7683 1.81281L63.529 8.85367L53.9067 10.5083L42.0027 0.478488C41.1469 -0.242286 39.8671 -0.137188 39.1468 0.715669C38.4235 1.56853 38.5304 2.84248 39.3847 3.56184L50.6439 13.0484L46.1426 22.7287C45.7122 23.6697 45.5448 24.6184 45.6396 25.5813C45.713 26.3205 45.9139 26.9696 46.2281 27.5427C46.2431 27.5775 49.4653 34.1837 49.4653 34.1837L41.4319 34.1574C41.4291 34.1574 41.4262 34.1574 41.4227 34.1574C39.885 34.1574 38.6373 35.3966 38.6309 36.9305C38.628 38.4679 39.8728 39.7177 41.4148 39.7205L53.933 39.7617C53.9352 39.7617 53.9394 39.7617 53.9409 39.7617C54.9028 39.7617 55.7964 39.2696 56.3058 38.4594C56.8196 37.6441 56.873 36.6223 56.4519 35.7602L53.2803 29.2853L60.5954 26.2296L63.4578 33.9522C63.8988 35.0295 65.4294 35.8802 66.7369 35.4122C68.1841 34.8953 68.911 33.4814 68.3951 32.1648L64.4468 21.1168C64.1475 20.5117 64.119 20.1624 63.0765 19.7029C62.2592 19.3407 60.8591 19.8577 60.785 19.8975L55.4928 21.807L58.6915 14.9898L64.233 13.6598Z" fill="black"/>
<path d="M59.5521 3.9858C60.3025 6.06078 59.2222 8.34595 57.1387 9.09584C55.0573 9.84076 52.7615 8.76422 52.0126 6.69066C51.2623 4.61426 52.3439 2.32696 54.4267 1.58062C56.5081 0.832862 58.8025 1.91083 59.5521 3.9858Z" fill="black"/>
<path d="M1.95005 27.4507C1.68427 27.4507 1.43488 27.4038 1.20044 27.3108C0.716619 27.107 0.341814 26.7342 0.138735 26.2513C-0.0486672 25.7691 -0.0486672 25.2401 0.153699 24.7565C0.54418 23.7914 1.73201 23.3093 2.69966 23.7133C3.1842 23.9157 3.55972 24.2899 3.74712 24.7714C3.9502 25.255 3.9502 25.784 3.74712 26.2506C3.4507 26.9842 2.73102 27.4507 1.95005 27.4507ZM5.35607 21.8926C4.88793 21.8926 4.4497 21.7371 4.09057 21.4409C3.70009 21.1143 3.4507 20.6321 3.40367 20.1187C3.35664 19.6039 3.52837 19.1053 3.85614 18.7006C4.5117 17.9067 5.80855 17.798 6.60519 18.4662C7.43389 19.1515 7.5422 20.3821 6.85529 21.2059C6.4812 21.6433 5.93396 21.8926 5.35607 21.8926ZM40.644 19.7288C40.1616 19.7288 39.692 19.557 39.3322 19.2147C38.5356 18.4989 38.475 17.269 39.2068 16.4751C39.9115 15.7117 41.1913 15.6492 41.9573 16.3508C42.7532 17.0666 42.8159 18.3121 42.0969 19.0904C41.7242 19.4945 41.192 19.7288 40.644 19.7288ZM10.23 17.5488C9.57441 17.5488 8.96446 17.237 8.60533 16.6924C8.30891 16.2563 8.21485 15.7422 8.30891 15.2281C8.41793 14.714 8.71435 14.2794 9.15258 13.9981C10.0119 13.4066 11.2767 13.6715 11.8553 14.5293C12.4489 15.4156 12.2144 16.6299 11.3081 17.2221C10.9803 17.4394 10.6048 17.5488 10.23 17.5488ZM35.2557 16.054C34.9436 16.054 34.6464 15.9765 34.3806 15.8367C33.9125 15.6172 33.5683 15.2132 33.3966 14.7147C33.2398 14.2325 33.2712 13.7034 33.5056 13.2369C33.9738 12.3017 35.1773 11.8976 36.1307 12.3642C36.5832 12.5985 36.943 12.9876 37.0983 13.4847C37.2708 13.9839 37.2387 14.5123 37.005 14.9639C36.6622 15.6343 35.9896 16.054 35.2557 16.054ZM16.1036 14.6997C15.2599 14.6997 14.526 14.1707 14.2609 13.3619C14.0885 12.8783 14.1362 12.3492 14.3699 11.8827C14.6036 11.4161 14.9941 11.0724 15.495 10.9176C16.4477 10.5754 17.6341 11.1506 17.9626 12.1476C18.3061 13.1751 17.7446 14.2637 16.7135 14.6074C16.5254 14.6692 16.3074 14.6997 16.1036 14.6997ZM29.07 13.9364C28.9445 13.9364 28.8042 13.9215 28.6795 13.9058C27.6171 13.6885 26.9294 12.661 27.1489 11.6008C27.352 10.5747 28.3831 9.87376 29.4448 10.0761C30.5072 10.2934 31.1791 11.321 30.9753 12.3798C30.7886 13.2823 29.9913 13.9364 29.07 13.9364ZM22.5401 13.4847C21.509 13.4847 20.6497 12.6759 20.5877 11.6484C20.5563 11.1342 20.7281 10.6371 21.0722 10.248C21.4157 9.87447 21.8689 9.64013 22.3691 9.60959C22.4004 9.59326 22.4154 9.59326 22.4311 9.59326C23.5719 9.59326 24.4305 10.4035 24.4932 11.4311C24.5246 11.9452 24.3372 12.4423 23.9937 12.8314C23.6503 13.2206 23.165 13.4549 22.6498 13.4847C22.6334 13.4847 22.5401 13.4847 22.5401 13.4847Z" fill="black"/>
<path d="M30.1761 53.4032V21.9653H19.3687V53.4032H0.62207V55.7387H48.5287V53.4032H30.1761Z" fill="black"/>
</svg>

<svg width="71" height="56" fill="none" xmlns="http://www.w3.org/2000/svg"><path d="M64.233 13.66c.99-.25 1.653-.744 1.988-1.489l3.891-8.94c.278-.638.34-1.881-.716-2.395-1.054-.517-2.24.086-2.628.977l-3.239 7.04-9.622 1.655L42.003.478a2.03 2.03 0 0 0-2.856.238 2.014 2.014 0 0 0 .238 2.846l11.259 9.486-4.501 9.68c-.43.942-.598 1.89-.503 2.853.073.74.274 1.389.588 1.962.015.035 3.237 6.64 3.237 6.64l-8.033-.026h-.01a2.788 2.788 0 0 0-2.791 2.774 2.786 2.786 0 0 0 2.784 2.79l12.518.04h.008a2.79 2.79 0 0 0 2.365-1.302 2.778 2.778 0 0 0 .146-2.699l-3.172-6.475 7.315-3.055 2.863 7.722c.44 1.078 1.971 1.928 3.279 1.46 1.447-.517 2.174-1.93 1.658-3.247l-3.948-11.048c-.3-.605-.328-.955-1.37-1.414-.818-.362-2.218.155-2.292.195l-5.292 1.909 3.198-6.817 5.542-1.33z" fill="#000"/><path d="M59.552 3.986a3.99 3.99 0 0 1-2.413 5.11 4.013 4.013 0 0 1-5.126-2.405 3.989 3.989 0 0 1 2.414-5.11 4.009 4.009 0 0 1 5.125 2.405zM1.95 27.45c-.266 0-.515-.046-.75-.14a1.969 1.969 0 0 1-1.06-1.058 1.984 1.984 0 0 1 .015-1.495c.39-.965 1.578-1.447 2.546-1.043.484.203.86.577 1.047 1.058a1.872 1.872 0 0 1 0 1.48 1.935 1.935 0 0 1-1.797 1.2zm3.406-5.557c-.468 0-.906-.156-1.265-.452a1.966 1.966 0 0 1-.687-1.322 1.964 1.964 0 0 1 .452-1.418c.656-.794 1.953-.903 2.75-.235.828.685.936 1.916.25 2.74a1.969 1.969 0 0 1-1.5.687zm35.288-2.164c-.482 0-.952-.172-1.312-.514a1.925 1.925 0 0 1-.125-2.74c.704-.763 1.984-.826 2.75-.124.796.716.859 1.961.14 2.74a1.988 1.988 0 0 1-1.453.638zm-30.414-2.18a1.93 1.93 0 0 1-1.625-.857 1.944 1.944 0 0 1-.296-1.464c.109-.514.405-.949.844-1.23.859-.591 2.124-.326 2.702.531.594.887.36 2.1-.547 2.693a1.95 1.95 0 0 1-1.078.327zm25.026-1.495c-.312 0-.61-.077-.875-.217a1.901 1.901 0 0 1-.984-1.122 1.944 1.944 0 0 1 .109-1.478c.468-.935 1.671-1.34 2.625-.873.452.234.812.624.967 1.12.173.5.14 1.028-.093 1.48a1.97 1.97 0 0 1-1.75 1.09zM16.104 14.7a1.925 1.925 0 0 1-1.843-1.338 1.881 1.881 0 0 1 .109-1.48 1.86 1.86 0 0 1 1.125-.964c.953-.343 2.14.233 2.468 1.23.343 1.027-.218 2.116-1.25 2.46a2.01 2.01 0 0 1-.61.092zm12.966-.764c-.125 0-.266-.014-.39-.03a1.951 1.951 0 0 1-1.531-2.305c.203-1.026 1.234-1.727 2.296-1.525a1.962 1.962 0 0 1 1.53 2.304 1.952 1.952 0 0 1-1.905 1.556zm-6.53-.451a1.96 1.96 0 0 1-1.952-1.837 1.924 1.924 0 0 1 1.781-2.038c.031-.017.046-.017.062-.017 1.14 0 2 .81 2.062 1.838a1.939 1.939 0 0 1-.5 1.4 1.94 1.94 0 0 1-1.343.654h-.11zm7.636 39.918V21.965H19.37v31.438H.622v2.336H48.53v-2.336H30.176z" fill="#000"/></svg>
